X: 39338
T: Tam Lin
R: reel
M: 4/4
K: Amajor
c2 fcac fc|d2 fdad fd|e2 gebe ge|agfe cffe|
c2 fcac fc|d2 fdad fd|e2 gebe ge|agfe cf f2||
fc c2 AcFc|fc c2 AcFc|eB B2 GB B2|eB B2 efge|
fc c2 AcFc|fc c2 AcFc|d3e f3g|agfe cf f2||

